flaticon/business/presentation-15.svg

<svg xmlns="http://www.w3.org/2000/svg" width="32" height="32" viewBox="0 0 24 24">
    <path d="M 24 1.601562 L 12.398438 1.601562 L 12.398438 0.398438 C 12.398438 0.179688 12.222656 0 12 0 C 11.777344 0 11.601562 0.179688 11.601562 0.398438 L 11.601562 1.601562 L 0 1.601562 L 0 18.398438 L 11.035156 18.398438 L 6.117188 23.316406 C 5.960938 23.472656 5.960938 23.726562 6.117188 23.882812 C 6.195312 23.960938 6.296875 24 6.398438 24 C 6.503906 24 6.605469 23.960938 6.683594 23.882812 L 11.601562 18.964844 L 11.601562 22.800781 C 11.601562 23.019531 11.777344 23.199219 12 23.199219 C 12.222656 23.199219 12.398438 23.019531 12.398438 22.800781 L 12.398438 18.964844 L 17.316406 23.882812 C 17.394531 23.960938 17.496094 24 17.601562 24 C 17.703125 24 17.804688 23.960938 17.882812 23.882812 C 18.039062 23.726562 18.039062 23.472656 17.882812 23.316406 L 12.964844 18.398438 L 24 18.398438 Z M 23.199219 17.601562 L 0.800781 17.601562 L 0.800781 2.398438 L 23.199219 2.398438 Z M 23.199219 17.601562"/>
    <path d="M4.398438 10.847656L4.398438 11.199219C4.398438 11.421875 4.578125 11.601562 4.800781 11.601562 5.019531 11.601562 5.199219 11.421875 5.199219 11.199219L5.199219 10.847656C5.636719 10.757812 6.035156 10.527344 6.328125 10.179688 6.570312 9.890625 6.683594 9.519531 6.644531 9.136719 6.605469 8.746094 6.402344 8.382812 6.089844 8.144531L4 6.515625C3.859375 6.40625 3.769531 6.242188 3.75 6.066406 3.734375 5.902344 3.78125 5.746094 3.882812 5.625 4.113281 5.355469 4.445312 5.199219 4.800781 5.199219 5.460938 5.199219 6 5.738281 6 6.398438 6 6.621094 6.179688 6.800781 6.398438 6.800781 6.621094 6.800781 6.800781 6.621094 6.800781 6.398438 6.800781 5.433594 6.113281 4.625 5.199219 4.441406L5.199219 4.089844C5.199219 3.867188 5.019531 3.6875 4.800781 3.6875 4.578125 3.6875 4.398438 3.867188 4.398438 4.089844L4.398438 4.441406C3.964844 4.53125 3.566406 4.761719 3.273438 5.109375 3.027344 5.398438 2.914062 5.765625 2.957031 6.148438 2.996094 6.542969 3.195312 6.90625 3.507812 7.148438L5.601562 8.773438C5.742188 8.882812 5.832031 9.046875 5.847656 9.222656 5.867188 9.386719 5.820312 9.542969 5.714844 9.664062 5.488281 9.933594 5.152344 10.089844 4.800781 10.089844 4.136719 10.089844 3.601562 9.550781 3.601562 8.890625 3.601562 8.667969 3.421875 8.488281 3.199219 8.488281 2.980469 8.488281 2.800781 8.667969 2.800781 8.890625 2.800781 9.855469 3.488281 10.664062 4.398438 10.847656zM15.601562 8L21.199219 8 21.199219 9.601562 16.800781 9.601562C16.578125 9.601562 16.398438 9.777344 16.398438 10 16.398438 10.222656 16.578125 10.398438 16.800781 10.398438L21.199219 10.398438 21.199219 12 19.601562 12C19.378906 12 19.199219 12.179688 19.199219 12.398438 19.199219 12.621094 19.378906 12.800781 19.601562 12.800781L21.199219 12.800781 21.199219 14.800781 18.398438 14.800781C18.179688 14.800781 18 14.980469 18 15.199219 18 15.421875 18.179688 15.601562 18.398438 15.601562L21.199219 15.601562 21.199219 16.398438C21.199219 16.621094 21.378906 16.800781 21.601562 16.800781 21.820312 16.800781 22 16.621094 22 16.398438L22 4C22 3.777344 21.820312 3.601562 21.601562 3.601562 21.378906 3.601562 21.199219 3.777344 21.199219 4L21.199219 4.800781 18.398438 4.800781C18.179688 4.800781 18 4.980469 18 5.199219 18 5.421875 18.179688 5.601562 18.398438 5.601562L21.199219 5.601562 21.199219 7.199219 15.601562 7.199219C15.378906 7.199219 15.199219 7.378906 15.199219 7.601562 15.199219 7.820312 15.378906 8 15.601562 8zM6.398438 15.199219L3.199219 15.199219C2.980469 15.199219 2.800781 15.378906 2.800781 15.601562 2.800781 15.820312 2.980469 16 3.199219 16L6.398438 16C6.621094 16 6.800781 15.820312 6.800781 15.601562 6.800781 15.378906 6.621094 15.199219 6.398438 15.199219zM8.117188 15.316406C8.042969 15.390625 8 15.492188 8 15.601562 8 15.707031 8.042969 15.808594 8.117188 15.878906 8.191406 15.957031 8.292969 16 8.398438 16 8.503906 16 8.609375 15.957031 8.683594 15.882812 8.757812 15.808594 8.800781 15.703125 8.800781 15.601562 8.800781 15.496094 8.757812 15.390625 8.683594 15.316406 8.535156 15.167969 8.265625 15.167969 8.117188 15.316406zM8.398438 13.199219L7.199219 13.199219C6.980469 13.199219 6.800781 13.378906 6.800781 13.601562 6.800781 13.820312 6.980469 14 7.199219 14L8.398438 14C8.621094 14 8.800781 13.820312 8.800781 13.601562 8.800781 13.378906 8.621094 13.199219 8.398438 13.199219zM3.199219 14L4 14C4.222656 14 4.398438 13.820312 4.398438 13.601562 4.398438 13.378906 4.222656 13.199219 4 13.199219L3.199219 13.199219C2.980469 13.199219 2.800781 13.378906 2.800781 13.601562 2.800781 13.820312 2.980469 14 3.199219 14zM5.316406 13.316406C5.242188 13.390625 5.199219 13.496094 5.199219 13.601562 5.199219 13.707031 5.242188 13.808594 5.316406 13.882812 5.390625 13.957031 5.496094 14 5.601562 14 5.703125 14 5.808594 13.957031 5.882812 13.882812 5.957031 13.808594 6 13.703125 6 13.601562 6 13.496094 5.957031 13.390625 5.882812 13.316406 5.730469 13.167969 5.46875 13.167969 5.316406 13.316406zM5.316406 13.316406"/>
</svg>

<svg xmlns="http://www.w3.org/2000/svg" width="32" height="32" viewBox="0 0 24 24">
    <path d="M24 1.602H12.398V.398a.398.398 0 1 0-.796 0v1.204H0v16.796h11.035l-4.918 4.918a.4.4 0 0 0 .567.567l4.918-4.918V22.8a.398.398 0 1 0 .796 0v-3.836l4.918 4.918a.399.399 0 0 0 .567 0 .4.4 0 0 0 0-.567l-4.918-4.918H24zm-.8 16H.8V2.398h22.4zm0 0"/>
    <path d="M4.398 10.848v.351a.401.401 0 0 0 .8 0l.001-.351c.438-.09.836-.32 1.13-.668.241-.29.355-.66.316-1.043a1.435 1.435 0 0 0-.555-.992L4 6.515a.664.664 0 0 1-.25-.449.592.592 0 0 1 .133-.441A1.202 1.202 0 0 1 6 6.398a.401.401 0 1 0 .8 0c0-.964-.687-1.773-1.6-1.957V4.09a.401.401 0 1 0-.802 0v.351a2 2 0 0 0-1.125.668c-.246.29-.359.657-.316 1.04.04.394.238.757.55 1l2.095 1.624c.14.11.23.274.246.45a.561.561 0 0 1-.133.441 1.196 1.196 0 0 1-2.113-.773.401.401 0 0 0-.8 0c-.001.964.686 1.773 1.596 1.957zm0 0M15.602 8h5.597v1.602h-4.398a.398.398 0 1 0 0 .796h4.398V12h-1.597a.401.401 0 1 0 0 .8h1.597v2h-2.8a.4.4 0 0 0 0 .802h2.8v.796a.401.401 0 0 0 .8 0L22.001 4a.398.398 0 0 0-.398-.398.398.398 0 0 0-.403.398v.8h-2.8a.4.4 0 0 0 0 .802h2.8v1.597h-5.597a.401.401 0 0 0 0 .8zm0 0M6.398 15.2H3.2a.401.401 0 0 0 0 .8h3.2a.401.401 0 1 0 0-.8zm0 0M8.117 15.316a.402.402 0 0 0-.117.286c0 .105.043.207.117.277a.387.387 0 0 0 .281.121c.106 0 .211-.043.286-.117a.406.406 0 0 0 .117-.281.409.409 0 0 0-.117-.286.416.416 0 0 0-.567 0zm0 0M8.398 13.2H7.2a.401.401 0 0 0 0 .8h1.2a.401.401 0 1 0 0-.8zm0 0M3.2 14H4c.223 0 .398-.18.398-.398A.398.398 0 0 0 4 13.199h-.8a.401.401 0 0 0 0 .801zm0 0M5.316 13.316a.4.4 0 1 0 .566.566.406.406 0 0 0 .118-.28.409.409 0 0 0-.117-.286.416.416 0 0 0-.567 0zm0 0"/>
</svg>
